!!!!SEGMENT: pl-kk--kk-i-476--006-pc0_studzinski-wincenty--msza-agnus-pc0.krn
!!!id: 18xx:1376
!!!COM: Studziński, Wincenty
!!!COM-rism: pe41023091
!!!CDT: 1815/03/30-1854/07/15
!!!CNT: Polish
!!!OTL: Msza – Agnus
!!!PDT:
!!!SMS-siglum: PL-Kk
!!!SMS-shelfmark: Kk.I.476
!!!NIFC-rismID: 1001140245
!!!URL-scan: http://repozytorium.nifc.pl/skany/pl-kk-nut--i-476
!!!ONB-nifc: UWAGA: części Mszy: 1. Kirie, 2. Gloria, 3. Credo, 4. Sanctus, 5. Benedictus, 6. Agnus
!!!SMS-variant:
!!!SMS-altvar:
**kern	**text	**dynam	**kern	**text	**dynam	**kern	**text	**dynam	**kern	**text	**dynam	**kern	**text	**dynam	**kern	**text	**dynam
*part6	*part6	*part6	*part5	*part5	*part5	*part4	*part4	*part4	*part3	*part3	*part3	*part2	*part2	*part2	*part1	*part1	*part1
*group	*group	*group	*group	*group	*group	*group1	*group1	*group1	*group1	*group1	*group1	*group1	*group1	*group1	*group1	*group1	*group1
*staff6	*staff6	*	*staff5	*staff5	*	*staff4	*staff4	*	*staff3	*staff3	*	*staff2	*staff2	*	*staff1	*staff1	*
*I"Organo	*	*	*I"[Organo]	*	*	*I"Basſo	*	*	*I"Tenor	*	*	*I"alto	*	*	*I"Soprano	*	*
*I'org	*	*	*I'org	*	*	*I'B	*	*	*I'T	*	*	*I'A	*	*	*I'S	*	*
*clefF4	*	*	*clefG2	*	*	*clefF4	*	*	*clefC4	*	*	*clefC3	*	*	*clefC1	*	*
*k[b-]	*	*	*k[b-]	*	*	*k[b-]	*	*	*k[b-]	*	*	*k[b-]	*	*	*k[b-]	*	*
*M4/4	*	*	*M4/4	*	*	*M4/4	*	*	*M4/4	*	*	*M4/4	*	*	*M4/4	*	*
*met(c)	*	*	*met(c)	*	*	*met(c)	*	*	*met(c)	*	*	*met(c)	*	*	*met(c)	*	*
=1	=1	=1	=1	=1	=1	=1	=1	=1	=1	=1	=1	=1	=1	=1	=1	=1	=1
*^	*	*	*	*	*	*	*	*	*	*	*	*	*	*	*	*	*
*2\right	*2\right	*	*	*2\right	*	*	*2\right	*	*	*2\right	*	*	*2\right	*	*	*2\right	*	*
!	!	!	!	!	!	!	!LO:TX:a:t=P:problem:all\right or left	!	!	!LO:TX:a:t=P:problem:all\right or left	!	!	!LO:TX:a:t=P:problem:all\right or left	!	!	!LO:TX:a:t=P:problem:all\right or left	!	!
!	!	!	!	!LO:TX:a:i:t=alto solo	!	!	!	!	!	!	!	!	!	!	!	!	!	!
!	!	!	!	!LO:TX:b:t=P:problem: w źródle "Maestoso" zapisane przed pierwszym taktem pomiędzy pięcioliniami	!	!	!	!	!	!	!	!	!	!	!	!	!	!
!	!	!	!	!LO:TX:b:t=Maestoso	!	!	!LO:TX:a:i:t=Maestoso	!	!	!LO:TX:a:i:t=Maestoso	!	!	!LO:TX:a:i:t=Maestoso	!	!	!LO:TX:a:i:t=Maestoso	!	!
!	!	!	!	!	!	!LO:DY:rj	!	!	!LO:DY:rj	!	!	!LO:DY:rj	!	!	!LO:DY:rj	!	!	!LO:DY:rj
!	!	!	!	!	!	!LO:DY:b	!	!	!LO:DY:b	!	!	!LO:DY:b	!	!	!LO:DY:b	!	!	!LO:DY:b
2D/	2D\	A-	.	2dd 2d/	.	f	2D\	A-	f	2d\	A-	f	2d\	A-	f	2dd\	A-	f
2AA/	2AA\	-gnus	.	2a 2A/	.	.	2AA/	-gnus	.	2A\	-gnus	.	2A/	-gnus	.	2a\	-gnus	.
=2	=2	=2	=2	=2	=2	=2	=2	=2	=2	=2	=2	=2	=2	=2	=2	=2	=2	=2
2F/	[>2F\	De-	.	[>2ff [<2f/	.	.	(>[>2F\	De-	.	2f\	De-	.	[>2f\	De-	.	[>2ff\	De-	.
8F/	8F\L]	.	.	8ff]L 8f/]	.	.	8F\L]	.	.	(>8f\L	.	.	8f\L]	.	.	8ff\L]	.	.
8ryy	8d\	-i	.	8dd 8d/	.	.	8d\J	.	.	8d\J)	.	.	8d\J	.	.	8dd\J	.	.
8ryy	8A\	qui	.	8a 8A/	.	.	8A\)	-i	.	8A\	-i	.	8A/	-i	.	8a\	-i	.
*	*	*	*	*	*	*	*	*	*	*	*	*	*8\left	*	*	*	*	*
8ryy	8F\J	.	.	8f/J	.	.	8F\	qui	.	8F/	qui	.	8f\	qui	.	8f\	qui	.
=3	=3	=3	=3	=3	=3	=3	=3	=3	=3	=3	=3	=3	=3	=3	=3	=3	=3	=3
*	*	*	*	*^	*	*	*	*	*	*	*	*	*	*	*	*	*	*
*	*	*	*	*	*	*above	*	*	*	*	*	*	*	*	*	*	*	*	*
!	!	!	!	!	!	!	!	!	!	!	!	!	!LO:DY:a	!	!	!	!	!	!
!	!	!	!	!	!	!	!	!	!	!	!	!	!	!	!	!	!	!	!LO:HP:a
4D/	1D	tol-	.	1d	4d\	tol-	.	1D	tol-	.	4D/	tol-	>	4d\	tol-	.	1d	tol-	>]
8F\L	.	.	.	.	8A\L	-lis	.	.	.	.	8F/	-lis	.	8A/	-lis	.	.	.	.
8F\J	.	.	.	.	8A\J	pe-	.	.	.	.	8F/	pec-	.	8A/	pec-	.	.	.	.
4G\	.	.	.	.	4B-\	-ca-	.	.	.	.	4G/	-ca-	]	4B-/	-ca-	.	.	.	.
4G\	.	.	.	.	4B-\	-ta	.	.	.	.	4G/	-ta	.	4B-/	-ta	.	.	.	.
!	!	!	!	!	!	!	!	!	!	!	!	!	!	!LO:LB:g=original	!	!	!	!	!
=4	=4	=4	=4	=4	=4	=4	=4	=4	=4	=4	=4	=4	=4	=4	=4	=4	=4	=4	=4
4F\	4D\	lis	.	4d/	4A\	mun-	.	4D\	-lis	.	4F/	mun-	.	4A/	mun-	.	4d/	-lis	.
4F\	4r	.	.	4r	4A\	-di	.	4r	.	.	4F/	-di	.	4A/	-di	.	4r	.	.
2r	2r	.	.	2r	2r	.	.	2r	.	.	2r	.	.	2r	.	.	2r	.	.
*	*	*	*	*v	*v	*	*	*	*	*	*	*	*	*	*	*	*	*	*
!	!	!	!	!	!	!	!	!	!	!	!	!	!	!	!	!LO:LB:g=original	!	!
=5	=5	=5	=5	=5	=5	=5	=5	=5	=5	=5	=5	=5	=5	=5	=5	=5	=5	=5
!	!	!	!	!	!	!	!	!	!LO:DY:rj	!	!	!	!	!	!LO:DY:rj	!	!	!
!	!	!	!	!	!	!	!	!	!LO:DY:b	!	!	!	!	!	!LO:DY:b	!	!	!
2E/	2E\	A-	.	2ee 2e/	.	.	2E\	A-	f	2e\	A-	.	2e\	A-	f	2ee\	A-	.
!	!	!	!	!	!	!	!LO:SIC:v:s=2AA	!	!	!LO:SIC:v:s=2A	!	!	!	!	!	!LO:SIC:v:s=2a	!	!
2ryy	2AA\	-gnus	.	2a 2A/	.	.	2BB-\	-gnus	.	2B-\	-gnus	.	2A/	-gnus	.	2b-\	-gnus	.
!	!	!	!	!	!	!	!LO:LB:g=original	!	!	!LO:LB:g=original	!	!	!	!	!	!	!	!
=6	=6	=6	=6	=6	=6	=6	=6	=6	=6	=6	=6	=6	=6	=6	=6	=6	=6	=6
2G/	2G\	de-	.	2gg 2g/	.	.	(>2G\	De-	.	[>2g\	De-	.	[>2g\	De-	.	[>2gg\	De-	.
8G\L	8ryy	.	.	8ggL 8g/	.	.	8G\L	.	.	8g\L]	.	.	8g\L]	.	.	8gg\L]	.	.
8e\	8ryy	-i	.	8ee 8e/	.	.	8e\J)	.	.	8e\J	.	.	8e\J	.	.	8ee\J	.	.
8c#X\	8ryy	qui	.	8cc#X 8c#X/	.	.	8c#X\	-i	.	8c#X\	-i	.	8c#X\	-i	.	8cc#X\	-i	.
8B-\J	8ryy	.	.	8b-J 8B-/	.	.	8B-\	qui	.	8B-\	qui	.	8B-\	qui	.	8b-\	qui	.
=7	=7	=7	=7	=7	=7	=7	=7	=7	=7	=7	=7	=7	=7	=7	=7	=7	=7	=7
*	*	*	*	*^	*	*	*	*	*	*	*	*	*	*	*	*	*	*
!	!	!	!	!	!	!	!LO:DY:a	!	!	!	!	!	!	!	!	!	!	!	!LO:HP:a
4A/	4A\	tol-	.	1a	4A\	.	>	(>4A\	tol-	.	4A\	tol-	.	4A/	tol-	.	1a	tol-	>]
!	!LO:N:vis=2	!	!	!	!	!	!	!	!	!	!	!	!	!	!	!	!	!	!
8E\L	2.AA\	.	.	.	8c#X\L	.	.	2.AA/)	.	.	8E/	-lis	.	8c#X/	-lis	.	.	.	.
8E\J	.	.	.	.	8c#\J	.	.	.	.	.	8E/	pec-	.	8c#/	pec-	.	.	.	.
4F\	.	.	.	.	4d\	.	.	.	.	.	4F/	-ca-	.	4d\	-ca-	.	.	.	.
4F\	.	.	.	.	4d\	.	]	.	.	.	4F/	-ta	.	4d\	-ta	.	.	.	.
!LO:LB:g=original	!LO:LB:g=original	!	!	!LO:LB:g=original	!LO:LB:g=original	!	!	!	!	!	!	!	!	!	!	!	!	!	!
=8	=8	=8	=8	=8	=8	=8	=8	=8	=8	=8	=8	=8	=8	=8	=8	=8	=8	=8	=8
*	*^	*	*	*	*	*	*	*	*	*	*	*	*	*	*	*	*	*	*
!	!	!	!	!	!	!	!	!	!	!	!LO:DY:rj	!	!	!	!	!	!	!	!	!
!	!	!	!	!	!	!	!	!	!	!	!LO:DY:b	!	!	!	!	!	!	!	!	!
4ryy	4E 4AA\	4ryy	lis	.	4a/	4c#X\	mun-	.	4AA/	-lis	p	4E/	mun-	.	4c#X\	mun-	.	4a\	-lis	.
8A\L	4E/	4E\	mi-	.	4r	4c#\	-di	.	8A\	mi-	.	4E/	-di	.	4c#\	-di	.	4r	.	.
8A\J	.	.	-se-	.	.	.	.	.	8A\	-se-	.	.	.	.	.	.	.	.	.	.
4A\	4ryy	4ryy	-re-	.	2r	4rA	.	.	4A\	-re-	.	2r	.	.	2r	.	.	2r	.	.
4G\	4ryy	4ryy	-re	.	.	4rA	.	.	4G\	-re	.	.	.	.	.	.	.	.	.	.
*	*v	*v	*	*	*	*	*	*	*	*	*	*	*	*	*	*	*	*	*	*
=9	=9	=9	=9	=9	=9	=9	=9	=9	=9	=9	=9	=9	=9	=9	=9	=9	=9	=9	=9
!	!	!	!	!	!	!	!	!	!	!	!	!	!	!	!	!	!LO:TX:a:t=2	!	!
4r	2F\	no-	.	1r	1ryy	.	.	(>2F\	no-	.	4r	.	.	1r	.	.	0r	.	.
!	!	!	!	!	!	!LO:TX:a:t=P:problem:w tym takcie nie wyświetla się tekst słowny górnej pięciolinii	!	!	!	!	!	!	!	!	!	!	!	!	!
!	!	!	!	!	!	!	!	!	!	!	!	!	!LO:DY:rj	!	!	!	!	!	!
!	!	!	!	!	!	!	!	!	!	!	!	!	!LO:DY:b	!	!	!	!	!	!
8d/L	.	.	.	.	.	mi-	.	.	.	.	8d\	mi-	p	.	.	.	.	.	.
!	!	!	!	!	!	!	!	!	!	!	!	!	!	!LO:TX:a:t=1	!	!	!	!	!
8d/J	.	.	.	.	.	-se-	.	.	.	.	8d\	-se-	.	.	.	.	.	.	.
4d/	2F#X\	.	.	.	.	-re-	.	2F#X\)	.	.	4d\	-re-	.	.	.	.	.	.	.
4c/	.	.	.	.	.	-re	.	.	.	.	4c\	-re-	.	.	.	.	.	.	.
!	!	!	!	!	!	!	!	!	!	!	!LO:LB:g=original	!	!	!	!	!	!	!	!
=10	=10	=10	=10	=10	=10	=10	=10	=10	=10	=10	=10	=10	=10	=10	=10	=10	=10	=10	=10
4B-/	4G\	-bis	.	1raa	4r	.	.	4G\	-bis	.	4B-\	-re	.	4r	.	.	.	.	.
8d/L	8GG/L	mi-	.	.	8b-\L	.	.	8GG/	mi-	.	8d\	mi-	.	8b-\	mi-	p	.	.	.
8d/J	8GG/J	-se-	.	.	8b-\J	.	.	8GG/	-se-	.	8d\	-se-	.	8b-\	-se-	.	.	.	.
4c/	4AA/	-re-	.	.	4a\	.	.	4AA/	-re-	.	4c\	-re-	.	4a\	-re-	.	.	.	.
4B-/	4BB-/	-re	.	.	4g\	.	.	4BB-/	-re	.	4B-\	-re	.	4g\	-re	.	.	.	.
*v	*v	*	*	*	*	*	*	*	*	*	*	*	*	*	*	*	*	*	*
!	!	!	!	!	!	!	!LO:LB:g=original	!	!	!	!	!	!	!	!	!	!	!
=11	=11	=11	=11	=11	=11	=11	=11	=11	=11	=11	=11	=11	=11	=11	=11	=11	=11	=11
2A 2C\	no-	.	4r	2f\	.	.	1C	no-	.	(>2A\	no-	.	2f\	no-	.	4r	.	.
.	.	.	8cc/L	.	mi-	.	.	.	.	.	.	.	.	.	.	8cc\	mi-	.
.	.	.	8cc/J	.	-se-	.	.	.	.	.	.	.	.	.	.	8cc\	-se-	.
2G/	.	.	4.dd-X/	2e\	-re-	.	.	.	.	2G\)	.	.	2e\	-bis	.	4.dd-X\	-re-	.
.	.	.	8cc/	.	-re	.	.	.	.	.	.	.	.	.	.	8cc\	-re	.
!	!	!	!	!	!	!	!	!	!	!	!	!	!	!	!	!LO:LB:g=original	!	!
=12	=12	=12	=12	=12	=12	=12	=12	=12	=12	=12	=12	=12	=12	=12	=12	=12	=12	=12
*^	*	*	*	*^	*	*	*	*	*	*	*	*	*	*	*	*	*	*
4A/	4F\	-bis	.	8a/L	2f\	2ryy	Ag-	.	4F\	-bis	.	4A\	-bis	.	2f\	A-	.	8a\	no-	.
.	.	.	.	8f/J	.	.	.	.	.	.	.	.	.	.	.	.	.	8f\	-bis	.
4rAA	4rA	.	.	4r	.	.	.	.	4r	.	.	4r	.	.	.	.	.	4r	.	.
!	!	!	!	!	!	!	!	!	!	!	!	!	!	!	!LO:TX:a:t=solo	!	!	!	!	!
2r	2r	.	.	2r	2c/	2c\	-nus	.	2r	.	.	2r	.	.	2c\	-gnus	.	2r	.	.
*	*	*	*	*	*v	*v	*	*	*	*	*	*	*	*	*	*	*	*	*	*
=13	=13	=13	=13	=13	=13	=13	=13	=13	=13	=13	=13	=13	=13	=13	=13	=13	=13	=13	=13
2r	2ryy	.	.	2r	2a\	De-	.	2r	.	.	2r	.	.	[>2a\	De-	.	2r	.	.
4r	4ryy	.	.	4r	8a\L	.	.	4r	.	.	4r	.	.	8a\L]	.	.	4r	.	.
.	.	.	.	.	8f\J	.	.	.	.	.	.	.	.	8f\J	.	.	.	.	.
8r	8ryy	.	.	8r	8c/	-i	.	8r	.	.	8r	.	.	8c\	-i	.	8r	.	.
!LO:N:vis=xstem	!	!	!	!	!	!	!	!	!	!	!	!	!	!	!	!	!	!	!
8c/	8F\	qui	.	8a/	8A/	.	.	8F\	qui	.	8c\	qui	.	8A\	qui	.	8a\	qui	.
*v	*v	*	*	*	*	*	*	*	*	*	*	*	*	*	*	*	*	*	*
=14	=14	=14	=14	=14	=14	=14	=14	=14	=14	=14	=14	=14	=14	=14	=14	=14	=14	=14
4c 4F\	tol-	.	4a/	1F	.	.	4F\	tol-	.	4c\	tol-	.	1F	tol-	.	4a\	tol-	.
8cL 8F\	-lis	.	8a/L	.	.	.	8F\	-lis	.	8c\	-lis	.	.	.	.	8a\	-lis	.
8cJ 8F\	pec-	.	8a/J	.	.	.	8F\	pec-	.	8c\	pec-	.	.	.	.	8a\	pec-	.
4d 4BB-\	-ca-	.	4b-/	.	.	.	4BB-/	-ca-	.	4d\	-ca-	.	.	.	.	4b-\	-ca-	.
4d 4BB-\	-ta	.	4b-/	.	.	.	4BB-/	-ta	.	4d\	-ta	.	.	.	.	4b-\	-ta	.
!	!	!	!	!	!	!	!	!	!	!LO:LB:g=original	!	!	!LO:LB:g=original	!	!	!	!	!
=15	=15	=15	=15	=15	=15	=15	=15	=15	=15	=15	=15	=15	=15	=15	=15	=15	=15	=15
!	!	!	!	!LO:N:vis=xstem	!	!	!	!	!	!	!	!	!	!	!	!	!	!
4c 4F\	mun-	.	4a/	4F\	.	.	4F\	mun-	.	4c\	mun-	.	4F/	-lis	.	4a\	mun-	.
4c 4F\	-di	.	4a/	4r	.	.	4F\	-di	.	4c\	-di	.	4r	.	.	4a\	-di	.
2r	.	.	2r	2rd	.	.	2r	.	.	2r	.	.	2r	.	.	2r	.	.
!LO:LB:g=original	!	!	!LO:LB:g=original	!LO:LB:g=original	!	!	!	!	!	!	!	!	!	!	!	!	!	!
=16	=16	=16	=16	=16	=16	=16	=16	=16	=16	=16	=16	=16	=16	=16	=16	=16	=16	=16
*^	*	*	*	*	*	*	*	*	*	*	*	*	*	*	*	*	*	*
1rGG	1rG	.	.	1raa	2g\	a-	.	1r	.	.	1r	.	.	2g\	A-	.	1r	.	.
!	!	!	!	!	!	!	!	!LO:TX:a:t=1	!	!	!LO:TX:a:t=1	!	!	!	!	!	!LO:TX:a:t=1	!	!
.	.	.	.	.	2d\	-gnus	.	.	.	.	.	.	.	2d\	-gnus	.	.	.	.
*v	*v	*	*	*	*	*	*	*	*	*	*	*	*	*	*	*	*	*	*
!	!	!	!	!	!	!	!LO:LB:g=original	!	!	!	!	!	!	!	!	!LO:LB:g=original	!	!
=17	=17	=17	=17	=17	=17	=17	=17	=17	=17	=17	=17	=17	=17	=17	=17	=17	=17	=17
2r	.	.	2r	2b-\	De-	.	2r	.	.	2r	.	.	[>2b-\	De-	.	2r	.	.
4r	.	.	4r	8b-\L	.	.	4r	.	.	4r	.	.	8b-\L]	.	.	4r	.	.
.	.	.	.	8g\J	.	.	.	.	.	.	.	.	8g\J	.	.	.	.	.
8r	.	.	8r	8e\L	-i	.	8r	.	.	8r	.	.	8e\	-i	.	8r	.	.
8B- 8G\	qui	.	8g/	8d\J	qui	.	8G\	qui	.	8B-\	qui	.	8d\	qui	.	8g\	qui	.
=18	=18	=18	=18	=18	=18	=18	=18	=18	=18	=18	=18	=18	=18	=18	=18	=18	=18	=18
4G 4C\	tol-	.	4e/	1c	.	.	4C/	tol-	.	4G/	tol-	.	1c\	tol-	.	4e/	tol-	.
8GL 8C\	-lis	.	8e/L	.	.	.	8C/	-lis	.	8G/	-lis	.	.	.	.	8e/	-lis	.
8GJ 8C\	pe-	.	8e/J	.	.	.	8C/	pec-	.	8G/	pec-	.	.	.	.	8e/	pec-	.
4A 4C\	-ca-	.	4f/	.	.	.	4C/	-ca-	.	4A/	-ca-	.	.	.	.	4f/	-ca-	.
4A 4C\	-ta	.	4f/	.	.	.	4C/	-ta	.	4A/	-ta	.	.	.	.	4f/	-ta	.
=19	=19	=19	=19	=19	=19	=19	=19	=19	=19	=19	=19	=19	=19	=19	=19	=19	=19	=19
8GL 8C\	mun-	.	8e/L	4c\	.	.	8C/	mun-	.	8G/	mun-	.	4c	-lis	.	8e/	mun-	.
8GJ 8C\	-di	.	8e/	.	.	.	8C/	-di	.	8G/	-di	.	.	.	.	8e/	-di	.
4r	.	.	8cc/	4r	mi-	.	4r	.	.	4r	.	.	4r	.	.	8cc\	mi-	.
.	.	.	8cc/J	.	-se-	.	.	.	.	.	.	.	.	.	.	8cc\	-se-	.
2r	.	.	4cc/	2r	-re-	.	2r	.	.	2r	.	.	2r	.	.	4cc\	-re-	.
.	.	.	4b-/	.	-re	.	.	.	.	.	.	.	.	.	.	4b-\	-re	.
=20	=20	=20	=20	=20	=20	=20	=20	=20	=20	=20	=20	=20	=20	=20	=20	=20	=20	=20
*^	*	*	*	*	*	*	*	*	*	*	*	*	*	*	*	*	*	*
1rB	4r	.	.	2a/	4r	no	.	4r	.	.	1r	.	.	4r	.	.	(>2a\	no-	.
.	8F\L	mi-	.	.	8f\L	.	.	8F\	mi-	.	.	.	.	8f\	mi-	.	.	.	.
.	8F\J	-se-	.	.	8f\J	.	.	8F\	-se-	.	.	.	.	8f\	-se-	.	.	.	.
!	!	!	!	!	!	!	!	!	!	!	!LO:TX:a:t=1	!	!	!LO:LB:g=original	!	!	!	!	!
.	4G\	-re-	.	4b-/	4en\	.	.	(>4G\	-re-	.	.	.	.	(>4en\	-re-	.	4b-\	.	.
.	4A\	-re	.	4cc/	4e-X\	.	.	4A\)	.	.	.	.	.	4e-X\)	.	.	4cc\)	.	.
*v	*v	*	*	*	*	*	*	*	*	*	*	*	*	*	*	*	*	*	*
!	!	!	!	!	!	!	!LO:LB:g=original	!	!	!LO:LB:g=original	!	!	!	!	!	!LO:LB:g=original	!	!
=21	=21	=21	=21	=21	=21	=21	=21	=21	=21	=21	=21	=21	=21	=21	=21	=21	=21	=21
4B-\	.	.	4b-/	4d\	.	.	4B-\	-re	.	4r	.	.	4d\	-re	.	4b-\	-bis	.
8dL 8B-\	mi-	.	8b-/L	8f\L	.	.	8B-\	mi-	.	8d\	mi-	.	8f\	mi-	.	8b-\	mi-	.
8dJ 8B-\	-se-	.	8b-/J	8f\J	.	.	8B-\	-se-	.	8d\	-se-	.	8f\	-se-	.	8b-\	-se-	.
!	!	!	!	!	!	!	!LO:SIC:v:s=4E-	!	!	!LO:SIC:v:s=4e-	!	!	!	!	!	!	!	!
4e-X 4E-X\	-re-	.	4g/	4g\	.	.	4E\	-re-	.	4e\	-re-	.	4g\	-re-	.	4g\	-re-	.
!	!	!	!	!	!	!	!LO:SIC:v:s=4E-	!	!	!LO:SIC:v:s=4e-	!	!	!	!	!	!	!	!
4e- 4E-\	-re	.	4cc/	4g\	.	.	4E\	-re	.	4e\	-re	.	4g\	-re	.	4cc\	-re	.
=22	=22	=22	=22	=22	=22	=22	=22	=22	=22	=22	=22	=22	=22	=22	=22	=22	=22	=22
2d 2F\	no-	.	2b-/	1f	no-	.	2F\	no-	.	(>2d\	no-	.	1f	no-	.	(>2b-\	no-	.
2c 2F\	-bis	.	2a/	.	.	.	2F\	-bis	.	2c\)	.	.	.	.	.	2a\)	.	.
=23	=23	=23	=23	=23	=23	=23	=23	=23	=23	=23	=23	=23	=23	=23	=23	=23	=23	=23
*^	*	*	*	*	*	*	*	*	*	*	*	*	*	*	*	*	*	*
4d>\	2B-\	A-	.	4b-/	4f\	-bis	.	2B-\	A-	.	4d\	-bis	.	4f\	-bis	.	4b-\	-bis	.
!	!	!	!	!	!	!	!	!LO:TX:a:i:t=solo	!	!	!	!	!	!	!	!	!	!	!
4ryy	.	.	.	4r	4r	.	.	.	.	.	4r	.	.	4r	.	.	4r	.	.
2ryy	2F\	-gnus	.	2r	2r	.	.	2F\	-gnus	.	2r	.	.	2r	.	.	2r	.	.
*v	*v	*	*	*	*	*	*	*	*	*	*	*	*	*	*	*	*	*	*
*	*	*	*v	*v	*	*	*	*	*	*	*	*	*	*	*	*	*	*
!LO:LB:g=original	!LO:LB:g=original	!	!	!LO:LB:g=original	!LO:LB:g=original	!	!	!	!	!	!	!	!	!	!	!	!
=24	=24	=24	=24	=24	=24	=24	=24	=24	=24	=24	=24	=24	=24	=24	=24	=24	=24
[>2d\	De-	.	1r	.	.	[>2d\	De-	.	1r	.	.	1r	.	.	1r	.	.
8d\L]	.	.	.	.	.	8d\L]	.	.	.	.	.	.	.	.	.	.	.
!	!	!	!	!	!	!	!	!	!LO:TX:a:t=1	!	!	!LO:TX:a:t=1	!	!	!LO:TX:a:t=1	!	!
8B-\	-i	.	.	.	.	8B-\J	.	.	.	.	.	.	.	.	.	.	.
8F\	qui	.	.	.	.	8F\	-i	.	.	.	.	.	.	.	.	.	.
8D\J	.	.	.	.	.	8D\	qui	.	.	.	.	.	.	.	.	.	.
=25	=25	=25	=25	=25	=25	=25	=25	=25	=25	=25	=25	=25	=25	=25	=25	=25	=25
*^	*	*	*	*	*	*	*	*	*	*	*	*	*	*	*	*	*
4.B-\	1BB-	tol-	.	4.f 4.d/	mi-	.	1BB-	tol-	.	4.B-\	mi-	.	4.d\	mi-	.	4.f/	mi-	.
8B-\	.	.	.	8f 8d/	-se-	.	.	.	.	8B-\	-se-	.	8d\	-se-	.	8f/	-se-	.
!	!	!	!	!LO:SIC:v:n=2 s=4e-	!	!	!	!	!	!	!	!	!LO:SIC:v:s=4e-	!	!	!	!	!
4B-\	.	.	.	4g 4e/	-re-	.	.	.	.	4B-\	-re-	.	4e\	-re-	.	4g/	-re-	.
!	!	!	!	!LO:SIC:v:n=2 s=4e-	!	!	!	!	!	!	!	!	!LO:SIC:v:s=4e-	!	!	!	!	!
4B-\	.	.	.	4g 4e/	-re	.	.	.	.	4B-\	-re	.	4e\	-re	.	4g/	-re	.
!	!	!	!	!	!	!	!	!	!	!	!	!	!LO:LB:g=original	!	!	!LO:LB:g=original	!	!
=26	=26	=26	=26	=26	=26	=26	=26	=26	=26	=26	=26	=26	=26	=26	=26	=26	=26	=26
4B-\	4BB-\	-lis	.	4f 4d/	no-	.	4BB-/	-lis	.	4B-\	no-	.	4d\	no-	.	4f/	no-	.
4B-\	4r	.	.	4f 4d/	-bis	.	4r	.	.	4B-\	-bis	.	4d\	-bis	.	4f/	-bis	.
2r	2ryy	.	.	2r	.	.	2r	.	.	2r	.	.	2r	.	.	2r	.	.
*v	*v	*	*	*	*	*	*	*	*	*	*	*	*	*	*	*	*	*
!	!	!	!	!	!	!LO:LB:g=original	!	!	!LO:PB:g=original	!	!	!	!	!	!	!	!
=27	=27	=27	=27	=27	=27	=27	=27	=27	=27	=27	=27	=27	=27	=27	=27	=27	=27
!	!	!	!	!	!	!	!	!	!LO:TX:a:t=2	!	!	!LO:TX:a:t=2	!	!	!	!	!
2B-\	a-	.	1r	.	.	2B-\	a-	.	0r	.	.	0r	.	.	1r	.	.
!	!	!	!	!	!	!	!	!	!	!	!	!	!	!	!LO:TX:a:t=2	!	!
2F\	-gnus	.	.	.	.	2F\	-gnus	.	.	.	.	.	.	.	.	.	.
=28	=28	=28	=28	=28	=28	=28	=28	=28	=28	=28	=28	=28	=28	=28	=28	=28	=28
2d\	De-	.	1r	.	.	[>2d\	De-	.	.	.	.	.	.	.	1r	.	.
8d\L	.	.	.	.	.	8d\L]	.	.	.	.	.	.	.	.	.	.	.
8c\	-i	.	.	.	.	8c\J	.	.	.	.	.	.	.	.	.	.	.
8Bn\	qui	.	.	.	.	8Bn\	-i	.	.	.	.	.	.	.	.	.	.
8A-X\J	.	.	.	.	.	8A-X\	qui	.	.	.	.	.	.	.	.	.	.
=29	=29	=29	=29	=29	=29	=29	=29	=29	=29	=29	=29	=29	=29	=29	=29	=29	=29
*^	*	*	*	*	*	*	*	*	*	*	*	*	*	*	*	*	*
4.d\	1G	tol-	.	4.bn 4.g\	mi-	.	1G	tol-	.	4.d\	mi-	.	4.g\	mi-	.	4.bn\	mi-	.
8d\	.	.	.	8b 8g\	-se-	.	.	.	.	8d\	-se-	.	8g\	-se-	.	8b\	-se-	.
4e\	.	.	.	4cc 4g\	-re-	.	.	.	.	4e\	-re-	.	4g\	-re-	.	4cc\	-re-	.
4e\	.	.	.	4cc 4g\	-re	.	.	.	.	4e\	-re	.	4g\	-re	.	4cc\	-re	.
=30	=30	=30	=30	=30	=30	=30	=30	=30	=30	=30	=30	=30	=30	=30	=30	=30	=30	=30
4d\	4G\	-li[s]	.	4bn 4g\	no-	.	4G\	-lis	.	4d\	no-	.	4g\	no-	.	4bn\	no-	.
4d\	4r	.	.	4b 4g\	-bis	.	4r	.	.	4d\	-bis	.	4g\	-bis	.	4b\	-bis	.
2r	2ryy	.	.	2r	.	.	2r	.	.	2r	.	.	2r	.	.	2r	.	.
=31	=31	=31	=31	=31	=31	=31	=31	=31	=31	=31	=31	=31	=31	=31	=31	=31	=31	=31
*	*	*	*	*^	*	*	*	*	*	*	*	*	*	*	*	*	*	*
!	!	!	!	!	!	!	!	!	!	!	!	!	!LO:DY:rj	!	!	!LO:DY:rj	!	!	!LO:DY:rj
!	!	!	!	!	!	!	!LO:DY:b	!	!	!	!	!	!LO:DY:b	!	!	!LO:DY:b	!	!	!LO:DY:b
2c/	2c\	a-	.	2cc/	2cc\	.	f	2c\	A-	.	2c\	A-	f	2cc\	A-	f	2cc\	A-	f
2G/	2G\	-gnus	.	2g/	2g\	.	.	2G\	-gnus	.	2G\	-gnus	.	2g\	-gnus	.	2g\	-gnus	.
*v	*v	*	*	*	*	*	*	*	*	*	*	*	*	*	*	*	*	*	*
*	*	*	*v	*v	*	*	*	*	*	*	*	*	*	*	*	*	*	*
!LO:LB:g=original	!LO:LB:g=original	!	!	!LO:LB:g=original	!LO:LB:g=original	!	!	!	!	!	!	!	!	!	!	!	!
=32	=32	=32	=32	=32	=32	=32	=32	=32	=32	=32	=32	=32	=32	=32	=32	=32	=32
!	!	!	!LO:SIC:v:n=2 s=2e-	!	!	!	!	!	!	!	!	!	!	!	!	!	!
2e-X\	De-	.	2ee-X 2e/	.	.	2e-X\	De-	.	2e-X\	De-	.	2e-X\	De-	.	2ee-X\	De-	.
4c\	-i	.	4cc 4c/	.	.	4c\	-i	.	4c\	-i	.	4c\	-i	.	4cc\	-i	.
4r	.	.	4r	.	.	4r	.	.	4r	.	.	4r	.	.	4r	.	.
!	!	!	!	!	!	!LO:LB:g=original	!	!	!LO:LB:g=original	!	!	!LO:LB:g=original	!	!	!LO:LB:g=original	!	!
=33	=33	=33	=33	=33	=33	=33	=33	=33	=33	=33	=33	=33	=33	=33	=33	=33	=33
*^	*	*	*^	*	*	*	*	*	*	*	*	*	*	*	*	*	*
!	!LO:N:vis=Xstem	!	!	!	!	!	!	!	!	!	!	!	!	!	!	!	!	!	!
2c\	2e	a-	.	2cc/	2cc\	.	.	2c\	A-	.	2c\	A-	.	2cc\	a-	.	2cc\	A-	.
2A-X/	2A-\	-gnus	.	2a-X/	2a-\	.	.	2A-X\	-gnus	.	2A-X\	-gnus	.	2a-X\	-gnus	.	2a-X\	-gnus	.
*v	*v	*	*	*	*	*	*	*	*	*	*	*	*	*	*	*	*	*	*
*	*	*	*v	*v	*	*	*	*	*	*	*	*	*	*	*	*	*	*
=34	=34	=34	=34	=34	=34	=34	=34	=34	=34	=34	=34	=34	=34	=34	=34	=34	=34
2e-X\	De-	.	2ee-X 2e-X/	.	.	2e-X\	De-	.	2e-X\	De-	.	2e-X\	De-	.	2ee-X\	De-	.
4c\	-i	.	4cc 4c/	.	.	4c\	-i	.	4c\	-i	.	4c\	-i	.	4cc\	-i	.
8r	.	.	8r	.	.	8r	.	.	8r	.	.	8r	.	.	8r	.	.
8c\	qui	.	8cc 8c/	.	.	8c\	qui	.	8c\	qui	.	8c\	qui	.	8cc\	qui	.
=35	=35	=35	=35	=35	=35	=35	=35	=35	=35	=35	=35	=35	=35	=35	=35	=35	=35
*	*	*	*^	*	*	*	*	*	*	*	*	*	*	*	*	*	*
4e-X\	tol-	.	4ee-X 4e-X/	4ryy	.	.	4e-X\	tol-	.	4e-X\	tol-	.	4e-X\	tol-	.	4ee-X\	tol-	.
8.e-\L	-lis	.	8.ee-L 8.e-/	8.ryy	.	.	8.e-\	-lis	.	8.e-\	-lis	.	8.e-\	-lis	.	8.ee-\	-lis	.
16d\Jk	pec-	.	16ddJk 16d/	16ryy	.	.	16d\	pec-	.	16d\	pec-	.	16d\	pe-	.	16dd\	pec-	.
4c\	-ca-	.	4cc/	8c\L	.	.	(>4c\	-ca-	.	4c\	-ca-	.	8c\L	-ca-	.	(>4cc\	-ca-	.
.	.	.	.	8cc\J	.	.	.	.	.	.	.	.	8cc\J	.	.	.	.	.
(>8B-\L	-ta	.	8b-/L	8ryy	.	.	8B-\)	.	.	(>8B-\	.	.	8b-\L	-ta	.	8b-\)	.	.
8A-X\J)	.	.	8a-X/J	8ryy	.	.	8A-X\	-ta	.	8A-X\)	-ta	.	8a-X\J	.	.	8a-X\	-ta	.
=36	=36	=36	=36	=36	=36	=36	=36	=36	=36	=36	=36	=36	=36	=36	=36	=36	=36	=36
*^	*	*	*	*	*	*	*	*	*	*	*	*	*	*	*	*	*	*
4.G\	4.ryy	mun-	.	4.g/	4.g\	.	.	4.G\	mun-	.	4.G\	mun-	.	(>4.g\	mun-	.	(>4.g\	mun-	.
8qqB-/	.	.	.	8qqb-/	.	.	.	8qqB-/	.	.	8qqB-/	.	.	8qqb-/	.	.	8qqb-/	.	.
8A-X\	8ryy	.	.	8a-X/	8a-\	.	.	8A-X\	.	.	8A-X\	.	.	8a-X\)	.	.	8a-X\	.	.
4G\	4ryy	di	.	4g/	4g\	.	.	4G\	-di	.	4G\	di	.	4g\	-di	.	4g\)	-di	.
!LO:N:vis=4.	!	!	!	!	!	!	!	!	!	!	!	!	!	!	!	!	!	!	!
8.g\L	4rDD	mi-	.	4r	4ryy	.	.	4r	.	.	8.g\	mi-	.	4r	.	.	4r	.	.
!LO:N:vis=4	!	!	!	!	!	!	!	!	!	!	!	!	!	!	!	!	!	!	!
16f\Jk	.	-se-	.	.	.	.	.	.	.	.	16f\	-se-	.	.	.	.	.	.	.
*	*	*	*	*v	*v	*	*	*	*	*	*	*	*	*	*	*	*	*	*
!	!	!	!	!	!	!	!	!	!	!LO:LB:g=original	!	!	!LO:PB:g=original	!	!	!LO:LB:g=original	!	!
=37	=37	=37	=37	=37	=37	=37	=37	=37	=37	=37	=37	=37	=37	=37	=37	=37	=37	=37
*	*	*	*	*^	*	*	*	*	*	*	*	*	*	*	*	*	*	*
!	!	!	!	!	!	!	!	!	!	!	!	!	!	!	!	!LO:DY:a	!	!	!
!	!	!	!LO:DY:rj	!	!	!	!	!	!	!	!	!	!	!	!	!	!	!	!
!	!	!	!LO:DY:b	!	!	!	!	!	!	!	!	!	!	!	!	!	!	!	!
!LO:N:vis=Xstem	!	!	!	!	!	!	!	!	!	!	!	!	!	!	!	!	!	!	!
4e-X/	1r	-re	p	4r	4ryy	.	.	1r	.	.	4e-X\	-re	.	4r	.	p	4r	.	.
8.G/L	.	.	.	8.ee-XL/	8.ee-X\L 8.g\	.	.	.	.	.	8.G\	mi-	.	8.g\	mi-	.	8.ee-X\	mi-	.
!	!	!	!	!	!	!	!	!LO:TX:a:t=1	!	!	!	!	!	!	!	!	!	!	!
16Bn/Jk	.	.	.	16ddJk	16dd\Jk 16f\	.	.	.	.	.	16Bn\	-se-	.	16f\	-se-	.	16dd\	-se-	.
!LO:N:vis=Xstem	!	!	!	!	!	!	!	!	!	!	!	!	!	!	!	!	!	!	!
4c/	.	.	.	4cc	4cc\ 4e-X\	.	.	.	.	.	4c\	-re-	.	4e-X\	-re-	.	4cc\	-re-	.
!LO:N:vis=Xstem	!	!	!	!	!	!	!	!	!	!	!	!	!	!	!	!	!	!	!
4c/	.	.	.	4a-X	4a-X\ 4e-\	.	.	.	.	.	4c\	-re	.	4e-\	-re	.	4a-X\	-re	.
!	!	!	!	!	!	!	!	!LO:LB:g=original	!	!	!	!	!	!	!	!	!	!	!
*	*	*	*	*v	*v	*	*	*	*	*	*	*	*	*	*	*	*	*	*
=38	=38	=38	=38	=38	=38	=38	=38	=38	=38	=38	=38	=38	=38	=38	=38	=38	=38	=38
*	*	*	*	*^	*	*	*	*	*	*	*	*	*	*	*	*	*	*
!	!	!	!LO:DY:rj	!	!	!	!	!	!	!LO:DY:rj	!	!	!	!	!	!	!	!	!
!	!	!	!LO:DY:b	!	!	!	!	!	!	!LO:DY:b	!	!	!	!	!	!	!	!	!
4.Bn\	4rFF	.	p	4.g 4.d/	4.ryy	no-	.	4r	.	p	(>4.Bn\	no-	.	(>4.d\	no-	.	(>4.g\	no-	.
.	8.G\L	mi-	.	.	.	.	.	8.G\	mi-	.	.	.	.	.	.	.	.	.	.
!LO:N:vis=Xstem	!	!	!	!	!	!	!	!	!	!	!	!	!	!	!	!	!	!	!
8c\	.	.	.	8a-X 8e-X/	8ryy	.	.	.	.	.	8c\)	.	.	8e-X\)	.	.	8a-X\)	.	.
.	16G\Jk	-se-	.	.	.	.	.	16G\	-se-	.	.	.	.	.	.	.	.	.	.
4r	4G\	-re-	.	4g 4d/	4ryy	-bis	.	4G\	-re-	.	4B\	-bis	.	4d\	-bis	.	4g\	-bis	.
8.g/L	4G\	-re	.	4r	4r	.	.	4G\	-re	.	8.g\	mi-	.	4r	.	.	4r	.	.
16f/Jk	.	.	.	.	.	.	.	.	.	.	16f\	-se-	.	.	.	.	.	.	.
*	*	*	*	*v	*v	*	*	*	*	*	*	*	*	*	*	*	*	*	*
!LO:LB:g=original	!LO:LB:g=original	!	!	!LO:LB:g=original	!	!	!	!	!	!	!	!	!	!	!	!	!	!
=39	=39	=39	=39	=39	=39	=39	=39	=39	=39	=39	=39	=39	=39	=39	=39	=39	=39	=39
4e-X/	1r	re	.	4r	.	.	1r	.	.	4e-X\	-re-	.	4r	.	.	4r	.	.
*	*	*	*	*	*	*	*	*	*	*	*	*	*	*	*	*8\left	*	*
8.G/L	.	mi-	.	8.ee-XL 8.g/	.	.	.	.	.	(>8.G\L	.	.	8.g\	mi-	.	8.ee-X\	mi-	.
*	*	*	*	*	*	*	*	*	*	*	*	*	*	*	*	*8\right	*	*
16Bn/Jk	.	-se-	.	16ddJk 16f/	.	.	.	.	.	16Bn\Jk	.	.	16f\	-se-	.	16dd\	-se-	.
4c/	.	-re-	.	4cc 4e-X/	.	.	.	.	.	4c\	.	.	4e-X\	-re-	.	4cc\	-re-	.
4c/	.	-re-	.	4a-X 4e-/	.	.	.	.	.	4c\)	re	.	4e-\	-re	.	4a-X\	-re	.
=40	=40	=40	=40	=40	=40	=40	=40	=40	=40	=40	=40	=40	=40	=40	=40	=40	=40	=40
4.Bn/	4r	.	.	4.g 4.d/	no-	.	4r	.	.	(>4.Bn\	no-	.	(>4.d\	no-	.	(>4.g\	no-	.
!	!	!	!	!	!	!	!	!	!LO:DY:rj	!	!	!	!	!	!	!	!	!
!	!	!	!	!	!	!	!	!	!LO:DY:b	!	!	!	!	!	!	!	!	!
.	8G\L	mi-	.	.	.	.	8G\	mi-	p	.	.	.	.	.	.	.	.	.
8c/	8G\	-se-	.	8a-X 8e-X/	.	.	8G\	-se-	.	8c\)	.	.	8e-X\)	.	.	8a-X\)	.	.
4B/	8G\	-re-	.	4g 4d/	-bis	.	8G\	-re-	.	4B\	-bis	.	4d\	-bis	.	4g\	-bis	.
.	8G\J	-re	.	.	.	.	8G\	-re	.	.	.	.	.	.	.	.	.	.
4G/	4GG\	qui	.	4g/	.	.	4G\	qui	.	4G\	qui	.	4g\	qui	.	4g\	qui	.
*v	*v	*	*	*	*	*	*	*	*	*	*	*	*	*	*	*	*	*
!	!	!	!	!	!	!	!	!	!LO:LB:g=original	!	!	!LO:LB:g=original	!	!	!LO:LB:g=original	!	!
=41	=41	=41	=41	=41	=41	=41	=41	=41	=41	=41	=41	=41	=41	=41	=41	=41	=41
2c 2C\	tol-	.	2cc 2e-X/	.	.	2C\	tol-	.	2c\	tol-	.	2e-X\	tol-	.	2cc\	tol-	.
4c 4D\	-lis	.	4cc 4f/	.	.	4D\	-lis	.	4c\	-lis	.	4f\	-lis	.	4cc\	-lis	.
4c 4E-X\	pec-	.	4cc 4g/	.	.	4E-X\	pec-	.	4c\	pec-	.	4g\	pec-	.	4cc\	pec-	.
=42	=42	=42	=42	=42	=42	=42	=42	=42	=42	=42	=42	=42	=42	=42	=42	=42	=42
*^	*	*	*^	*	*	*	*	*	*	*	*	*	*	*	*	*	*
2.c/	(>4F\	-ca-	.	2.cc/	4a-X\	.	.	(>4F\	-ca-	.	2.c\	-ca-	.	(>4a-X\	-ca-	.	2.cc\	-ca-	.
.	4E-X\	.	.	.	4g\	.	.	4E-X\)	.	.	.	.	.	4g\	.	.	.	.	.
.	4D\)	.	.	.	4f\	.	.	4D\	.	.	.	.	.	4f\)	.	.	.	.	.
4c/	4F\	-ta	.	4cc/	4a-\	.	.	4F\	-ta	.	4c\	-ta	.	4a-\	-ta	.	4cc\	-ta	.
!	!	!	!	!	!	!	!	!LO:LB:g=original	!	!	!	!	!	!	!	!	!	!	!
=43	=43	=43	=43	=43	=43	=43	=43	=43	=43	=43	=43	=43	=43	=43	=43	=43	=43	=43	=43
4c\	4E-X\	mun-	.	4cc/	4g\	.	.	4E-X\	mun-	.	4c\	mun-	.	4g\	mun-	.	4cc\	mun-	.
4c/	4C\	-di	.	4cc/	4e-X\	.	.	4C\	-di	.	4c\	-di	.	4e-X\	-di	.	4cc\	-di	.
4c/	4D\	mi-	.	4cc/	4f\	.	.	4D\	mi-	.	4c\	mi-	.	4f\	mi-	.	4cc\	mi-	.
4c/	4E-\	-se-	.	4cc/	4g\	.	.	4E-\	-se-	.	4c\	-se-	.	4g\	-se-	.	4cc\	-se-	.
=44	=44	=44	=44	=44	=44	=44	=44	=44	=44	=44	=44	=44	=44	=44	=44	=44	=44	=44	=44
2c/	4F\	-re-	.	2.cc/	4a-X\	.	.	(>4F\	-re-	.	2.c\	-re-	.	(>4a-X\	-re-	.	2.cc\	-re-	.
.	4E-X\	.	.	.	4g\	.	.	4E-X\)	.	.	.	.	.	4g\)	.	.	.	.	.
2ryy	4D\	.	.	.	4f\	.	.	4D\	.	.	.	.	.	4f\	.	.	.	.	.
.	4F\	re	.	4cc/	4a-\	.	.	4F\	-re	.	4c\	-re	.	4a-\	-re	.	4cc\	-re	.
!	!	!	!	!	!	!	!	!	!	!	!	!	!	!LO:LB:g=original	!	!	!	!	!
=45	=45	=45	=45	=45	=45	=45	=45	=45	=45	=45	=45	=45	=45	=45	=45	=45	=45	=45	=45
4c/	4E-X\	-no-	.	4cc/	4g\	.	.	4E-X\	no-	.	4c\	no-	.	4g\	no-	.	4cc\	no-	.
4c/	4E-\	-bis-	.	4cc/	4g\	.	.	4E-\	-bis	.	4c\	-bis	.	4g\	-bis	.	4cc\	-bis	.
4e-X/	4C\	-mi-	.	4cc/	4g\	.	.	4C\	mi-	.	4e-X\	mi-	.	4g\	mi-	.	4cc\	mi-	.
4e-/	4C\	-se-	.	4cc/	4g\	.	.	4C\	-se-	.	4e-\	-se-	.	4g\	-se-	.	4cc\	-se-	.
!LO:LB:g=original	!LO:LB:g=original	!	!	!LO:LB:g=original	!LO:LB:g=original	!	!	!	!	!	!LO:LB:g=original	!	!	!	!	!	!LO:LB:g=original	!	!
=46	=46	=46	=46	=46	=46	=46	=46	=46	=46	=46	=46	=46	=46	=46	=46	=46	=46	=46	=46
!LO:N:vis=xstem	!	!	!	!	!	!	!	!	!	!	!	!	!	!	!	!	!	!	!
4f/	4BBn\	-re-	.	4dd/	4a-X\	.	.	4BBn/	-re-	.	4f\	-re-	.	4a-X\	-re-	.	4dd\	-re-	.
!LO:TX:a:t=P:problem:w źródle ta nuta nie ma laski; nie można zakodować, bo rozjeżdżają się piony	!	!	!	!	!	!	!	!	!	!	!	!	!	!	!	!	!	!	!
8e-X/	8C\	-re	.	8cc/	8g\	.	.	8C/	-re	.	8e-X\	-re	.	8g\	-re	.	8cc\	-re	.
8r	8ryy	.	.	8r	8r	.	.	8r	.	.	8r	.	.	8r	.	.	8r	.	.
!LO:N:vis=xstem	!	!	!	!	!	!	!	!	!	!	!	!	!	!	!	!	!	!	!
4e-/	4C\	mi-	.	4cc/	4g\	.	.	4C/	mi-	.	4e-\	mi-	.	4g\	mi-	.	4cc\	mi-	.
!LO:N:vis=xstem	!	!	!	!	!	!	!	!	!	!	!	!	!	!	!	!	!	!	!
4e-/	4C\	-se-	.	4cc/	4g\	.	.	4C/	-se-	.	4e-\	-se-	.	4g\	-se-	.	4cc\	-se-	.
!	!	!	!	!	!	!	!	!LO:PB:g=original	!	!	!	!	!	!	!	!	!	!	!
=47	=47	=47	=47	=47	=47	=47	=47	=47	=47	=47	=47	=47	=47	=47	=47	=47	=47	=47	=47
4f\	4BBn\	-re-	.	4dd/	4a-X\	.	.	(<4BBn/	-re	.	4f\	-re-	.	4a-X\	-re-	.	4dd\	-re-	.
!LO:TX:a:t=P:problem:w źródle ta nuta nie ma laski; nie można zakodować, bo rozjeżdżają się piony	!	!	!	!	!	!	!	!	!	!	!	!	!	!	!	!	!	!	!
8e-X/	8C\	-re	.	8cc/	8g\	.	.	8C/)	.	.	8e-X\	-re	.	8g\	-re	.	8cc\	-re	.
8r	8ryy	.	.	8r	8ryy	.	.	8r	.	.	8r	.	.	8r	.	.	8r	.	.
!	!LO:N:vis=xstem	!	!	!	!	!	!	!	!	!	!	!	!	!	!	!	!	!	!
4C\	4c	mi-	.	4cc 4c/	4ryy	.	.	4C/	mi-	.	4c\	mi-	.	4.c\	mi-	.	4cc\	mi-	.
!	!LO:N:vis=xstem	!	!	!	!	!	!	!	!	!	!	!	!	!	!	!	!	!	!
4C\	4c	-se-	.	4cc 4c/	4ryy	.	.	4C/	-se-	.	4c\	-se-	.	.	.	.	4cc\	-se-	.
.	.	.	.	.	.	.	.	.	.	.	.	.	.	8c\	-se-	.	.	.	.
=48	=48	=48	=48	=48	=48	=48	=48	=48	=48	=48	=48	=48	=48	=48	=48	=48	=48	=48	=48
4En/	2.C\	-re-	.	4dd/	4b-\	.	.	2.C/	-re-	.	(<4En/	-re-	.	(>4b-\	-re-	.	(>4dd\	-re-	.
4F/	.	.	.	4cc/	4an\	.	.	.	.	.	4F/	.	.	4an\	.	.	4cc\)	.	.
4G/	.	.	.	4b-/	4g\	.	.	.	.	.	4G/)	.	.	4g\)	.	.	4b-\	.	.
4A/	4C\	-re	.	4an/	4f\	.	.	4C/	-re	.	4A/	-re	.	4f\	-re	.	4an\	-re	.
!	!	!	!	!	!	!	!	!	!	!	!	!	!	!LO:LB:g=original	!	!	!	!	!
=49	=49	=49	=49	=49	=49	=49	=49	=49	=49	=49	=49	=49	=49	=49	=49	=49	=49	=49	=49
1B-	1C	no-	.	1g	2f\	.	.	[<2.C/	no-	.	1B-	no-	.	2f\	no-	.	1g	no-	.
.	.	.	.	.	4en\	.	.	.	.	.	.	.	.	(>4e\	.	.	.	.	.
.	.	.	.	.	4d\	.	.	4C/]	.	.	.	.	.	4d\)	.	.	.	.	.
=50	=50	=50	=50	=50	=50	=50	=50	=50	=50	=50	=50	=50	=50	=50	=50	=50	=50	=50	=50
!LO:TX:b:i:t=Dona nobis ut Kyrie	!	!	!	!	!	!	!	!	!	!	!	!	!	!	!	!	!	!	!
!LO:TX:b:t=P:problem:brak pełnej daty - uszkodzone źródło	!	!	!	!	!	!	!	!	!	!	!	!	!	!	!	!	!	!	!
!LO:TX:b:i:t=skonczyłem dnia 29 Sierp[nia] 185[?]	!	!	!	!	!	!	!	!	!	!	!	!	!	!	!	!	!	!	!
!LO:TX:b:i:t=Piotr Studzinski	!	!	!	!	!	!	!	!	!	!	!	!	!	!	!	!	!	!	!
2B-\	2C\	-bis	.	2cc 2e/	2e\	.	.	2C/	-bis	.	2B-\	-bis	.	2e\	-bis	.	2cc\	-bis	.
!	!	!	!	!	!	!	!	!	!	!	!	!	!	!LO:TX:a:t=P:problem:w źródle ta adnotacja zapisana na pięciolinii	!	!	!	!	!
!	!	!	!	!	!	!	!	!LO:TX:b:i:t=Dona nobis ut Kyrie	!	!	!LO:TX:b:i:t=Dona nobis ut Kyrie	!	!	!LO:TX:a:i:t=Dona nobis ut Kyrie	!	!	!	!	!
2r	2ryy	.	.	2r	2ryy	.	.	2r	.	.	2r	.	.	2r	.	.	2r	.	.
*v	*v	*	*	*	*	*	*	*	*	*	*	*	*	*	*	*	*	*	*
*	*	*	*v	*v	*	*	*	*	*	*	*	*	*	*	*	*	*	*
==	==	==	==	==	==	==	==	==	==	==	==	==	==	==	==	==	==
*-	*-	*-	*-	*-	*-	*-	*-	*-	*-	*-	*-	*-	*-	*-	*-	*-	*-
!!!system-decoration: [g1]{s5,s6}
!!!RDF**kern: > = above
!!!RDF**kern: < = below
!!!EED: Antoni Szymański
!!!EST: 2021-01-18
!!!ENC:Krzysztof Stępień
!!!END:2021-01-11
